tools/download-figma-icons/icons/outlined-medium/full-service.svg

<svg width="24" height="24" viewBox="0 0 24 24" fill="none" xmlns="http://www.w3.org/2000/svg">
<path fill-rule="evenodd" clip-rule="evenodd" d="M8.43857 4.84725L7.84907 4.49775L8.73032 2.931L9.23732 3.23175C9.47507 3.37125 9.76757 3.3705 10.0023 3.23175L10.7658 2.77875C10.9931 2.64375 11.1333 2.3985 11.1333 2.13375V1.5H12.8666V2.157C12.8666 2.4225 13.0068 2.66775 13.2348 2.802L13.9788 3.243C14.2143 3.3825 14.5076 3.3825 14.7431 3.243L15.2696 2.931L16.1508 4.4985L15.5778 4.83825C15.3498 4.974 15.2096 5.2185 15.2096 5.484V6.34425C15.2096 6.60975 15.3498 6.85425 15.5778 6.98925L16.1508 7.32975L15.2696 8.8965L14.6726 8.54325C14.4363 8.40375 14.1431 8.4045 13.9076 8.54325L13.2348 8.94225C13.0068 9.078 12.8666 9.3225 12.8666 9.58725V10.3283H11.1333V9.6105C11.1333 9.345 10.9931 9.09975 10.7658 8.96475L10.0728 8.5545C9.83657 8.41575 9.54407 8.41575 9.30782 8.5545L8.73032 8.8965L7.84907 7.3305L8.43857 6.981C8.66657 6.846 8.80607 6.60075 8.80607 6.33525V5.49225C8.80607 5.2275 8.66657 4.98225 8.43857 4.84725ZM6.18184 7.42575L7.79809 10.3005C7.89709 10.4768 8.06359 10.6058 8.25859 10.6575C8.45284 10.7085 8.66059 10.6808 8.83459 10.5788L9.63334 10.1055V11.0783C9.63334 11.4923 9.96859 11.8283 10.3833 11.8283H13.6166C14.0313 11.8283 14.3666 11.4923 14.3666 11.0783V10.1055L15.1653 10.5788C15.3393 10.6808 15.5478 10.7085 15.7413 10.6575C15.9363 10.6058 16.1028 10.4768 16.2018 10.3005L17.8181 7.42575C18.0168 7.071 17.8968 6.621 17.5466 6.41325L16.7096 5.9175L17.5466 5.415C17.8968 5.2065 18.0168 4.75725 17.8181 4.40175L16.2018 1.527C16.1021 1.3515 15.9363 1.2225 15.7413 1.17075C15.5478 1.11825 15.3386 1.14675 15.1653 1.2495L14.3666 1.72275V0.75C14.3666 0.33525 14.0313 0 13.6166 0H10.3833C9.96859 0 9.63334 0.33525 9.63334 0.75V1.707L9.61984 1.7145L8.83459 1.2495C8.66134 1.14675 8.45359 1.119 8.25859 1.17075C8.06359 1.2225 7.89709 1.3515 7.79809 1.527L6.18184 4.40175C5.98309 4.75725 6.10309 5.2065 6.45409 5.415L7.29634 5.91375L6.45409 6.41325C6.10309 6.621 5.98309 7.071 6.18184 7.42575ZM22.1949 17.4471L11.9394 22.4459L1.50018 19.1976V14.0414H6.71193C9.67968 14.0414 10.2414 15.8016 10.2609 15.8669C10.3487 16.1946 10.6464 16.4226 10.9854 16.4226H16.0509C16.0524 16.4226 16.0532 16.4234 16.0539 16.4234C16.3524 16.4234 16.5954 16.6664 16.5954 16.9641C16.5954 17.2626 16.3524 17.5049 16.0539 17.5049H9.10743C8.69268 17.5049 8.35743 17.8401 8.35743 18.2549C8.35743 18.6696 8.69268 19.0049 9.10743 19.0049H16.0539C16.3952 19.0049 16.7109 18.9134 16.9922 18.7656C16.9975 18.7636 17.0028 18.7628 17.008 18.762C17.0146 18.761 17.0211 18.76 17.0274 18.7566L21.7209 16.4729C21.9894 16.3439 22.3134 16.4541 22.4447 16.7219C22.5759 16.9911 22.4634 17.3159 22.1949 17.4471ZM23.7932 16.0649C23.5539 15.5751 23.1384 15.2076 22.6224 15.0299C22.1087 14.8506 21.5544 14.8859 21.0639 15.1244L18.0572 16.5876C17.8802 15.6441 17.0544 14.9279 16.0614 14.9241C16.0603 14.9241 16.059 14.9237 16.0577 14.9234C16.0569 14.9231 16.0561 14.9229 16.0553 14.9228C16.0548 14.9227 16.0544 14.9226 16.0539 14.9226H11.4759C11.0214 14.0691 9.77793 12.5414 6.71193 12.5414H0.750179C0.335429 12.5414 0.000178746 12.8766 0.000178746 13.2914V19.7496C0.000178746 20.0781 0.213929 20.3691 0.527429 20.4659L11.7774 23.9661C11.779 23.9665 11.7808 23.9667 11.7827 23.9669C11.7844 23.9671 11.7861 23.9673 11.7879 23.9676C11.8539 23.9879 11.9229 23.9976 11.9919 23.9984C11.9949 23.9984 11.9972 23.9999 12.0002 23.9999H12.0009C12.0013 23.9999 12.0015 23.9997 12.0017 23.9995C12.0019 23.9993 12.0021 23.9991 12.0024 23.9991C12.1052 23.9991 12.2019 23.9714 12.2934 23.9316C12.2982 23.93 12.3033 23.9295 12.3084 23.929C12.3154 23.9283 12.3225 23.9276 12.3294 23.9241L22.8527 18.7949C23.8637 18.3021 24.2859 17.0774 23.7932 16.0649ZM13.6601 5.9143C13.6601 6.8308 12.9168 7.57405 12.0003 7.57405C11.0831 7.57405 10.3398 6.8308 10.3398 5.9143C10.3398 4.99705 11.0831 4.2538 12.0003 4.2538C12.9168 4.2538 13.6601 4.99705 13.6601 5.9143Z" fill="black"/>
</svg>

<svg width="24" height="24" viewBox="0 0 24 24" fill="none" xmlns="http://www.w3.org/2000/svg"><path fill-rule="evenodd" clip-rule="evenodd" d="m8.439 4.847-.59-.35.881-1.566.507.3c.238.14.53.14.765 0l.764-.452a.75.75 0 0 0 .367-.645V1.5h1.734v.657c0 .265.14.51.368.645l.744.441a.75.75 0 0 0 .764 0l.527-.312.88 1.567-.572.34a.751.751 0 0 0-.368.646v.86c0 .266.14.51.368.645l.573.34-.881 1.567-.597-.353a.753.753 0 0 0-.765 0l-.673.4a.751.751 0 0 0-.368.644v.741h-1.734v-.717a.751.751 0 0 0-.367-.646l-.693-.41a.755.755 0 0 0-.765 0l-.578.341-.88-1.566.589-.349a.75.75 0 0 0 .367-.646v-.843a.75.75 0 0 0-.367-.645ZM6.182 7.426 7.798 10.3a.749.749 0 0 0 1.037.279l.798-.474v.973c0 .414.336.75.75.75h3.234a.75.75 0 0 0 .75-.75v-.973l.798.474a.749.749 0 0 0 1.036-.278l1.617-2.875a.751.751 0 0 0-.271-1.013l-.837-.495.837-.503a.752.752 0 0 0 .271-1.013l-1.616-2.875a.753.753 0 0 0-1.037-.277l-.798.473V.75a.75.75 0 0 0-.75-.75h-3.234a.75.75 0 0 0-.75.75v.957l-.013.007-.785-.464a.751.751 0 0 0-1.037.277L6.182 4.402a.751.751 0 0 0 .272 1.013l.842.499-.842.5a.75.75 0 0 0-.272 1.012Zm16.013 10.021-10.256 4.999L1.5 19.198V14.04h5.212c2.968 0 3.53 1.76 3.549 1.826a.75.75 0 0 0 .724.556h5.069a.542.542 0 0 1 0 1.081H9.107a.75.75 0 1 0 0 1.5h6.947c.341 0 .657-.09.938-.238l.016-.004a.057.057 0 0 0 .02-.005l4.693-2.284a.544.544 0 0 1 .724.249.543.543 0 0 1-.25.725Zm1.598-1.382a2.03 2.03 0 0 0-1.17-1.035 2.02 2.02 0 0 0-1.56.094l-3.006 1.464a2.042 2.042 0 0 0-1.996-1.664h-.003l-.003-.001h-4.579c-.455-.854-1.698-2.382-4.764-2.382H.75a.75.75 0 0 0-.75.75v6.459c0 .328.214.62.527.716l11.25 3.5a.723.723 0 0 0 .214.032l.01.002h.001c.103 0 .2-.029.291-.068l.015-.003a.04.04 0 0 0 .021-.005l10.524-5.13a2.045 2.045 0 0 0 .94-2.73ZM13.66 5.915a1.66 1.66 0 1 1-3.32-.001 1.66 1.66 0 0 1 3.32 0Z" fill="currentColor"/></svg>
